icons/24/pencil.svg

<svg width="24" height="24" viewBox="0 0 24 24" xmlns="http://www.w3.org/2000/svg">
  <path fill-rule="evenodd" clip-rule="evenodd" d="M16.263 3.677C16.5912 3.34908 17.0361 3.16487 17.5 3.16487C17.9639 3.16487 18.4088 3.34908 18.737 3.677L20.323 5.263C20.6509 5.59115 20.8351 6.03608 20.8351 6.5C20.8351 6.96391 20.6509 7.40884 20.323 7.737L8.711 19.35C8.5038 19.5569 8.24799 19.7086 7.967 19.791L3.962 20.97C3.8328 21.0081 3.69573 21.0107 3.56517 20.9776C3.43462 20.9444 3.3154 20.8767 3.22005 20.7815C3.1247 20.6864 3.05674 20.5673 3.02329 20.4368C2.98985 20.3064 2.99217 20.1693 3.03 20.04L4.209 16.034C4.29144 15.753 4.44307 15.4972 4.65 15.29L16.263 3.677ZM17.677 4.737C17.6538 4.71372 17.6262 4.69524 17.5958 4.68264C17.5654 4.67004 17.5329 4.66355 17.5 4.66355C17.4671 4.66355 17.4346 4.67004 17.4042 4.68264C17.3738 4.69524 17.3462 4.71372 17.323 4.737L15.561 6.5L17.5 8.44L19.263 6.677C19.2863 6.65377 19.3048 6.62619 19.3174 6.59581C19.33 6.56544 19.3364 6.53288 19.3364 6.5C19.3364 6.46711 19.33 6.43455 19.3174 6.40418C19.3048 6.37381 19.2863 6.34622 19.263 6.323L17.677 4.737ZM16.439 9.5L14.5 7.56L5.71 16.35C5.68084 16.3796 5.65953 16.4161 5.648 16.456L4.858 19.142L7.544 18.352C7.58404 18.3402 7.62048 18.3185 7.65 18.289L16.44 9.5H16.439Z"/>
</svg>

<svg width="24" height="24" viewBox="0 0 24 24" xmlns="http://www.w3.org/2000/svg">
  <path fill-rule="evenodd" clip-rule="evenodd" d="M16.263 3.677a1.75 1.75 0 012.474 0l1.586 1.586a1.75 1.75 0 010 2.474L8.711 19.35a1.75 1.75 0 01-.744.441L3.962 20.97a.75.75 0 01-.932-.93l1.179-4.006a1.75 1.75 0 01.441-.744L16.263 3.677zm1.414 1.06a.25.25 0 00-.354 0L15.561 6.5 17.5 8.44l1.763-1.763a.25.25 0 000-.354l-1.586-1.586zM16.439 9.5L14.5 7.56l-8.79 8.79a.25.25 0 00-.062.106l-.79 2.686 2.686-.79a.25.25 0 00.106-.063L16.44 9.5z"/>
</svg>
